X:324
T:Honey Moon, The
R:Reel
C:Jas. Young
B:The Athole Collection
M:C|
L:1/8
K:D
A|Addd dffa|gfed ce A2|Addd dffa|gfge d2d:|
|:A|dAA2 BcdB|AFED CEE2|dAA2 Bcde|fgef d2d:|

